src/assets/svg/example-captcha.svg

<svg xmlns="http://www.w3.org/2000/svg" width="150" height="50"><path fill="#59c7ec" d="M18.3 41.08l.05.05-1.7.01-.06-.05q-3.24.14-4.19-1.99l-.02-.02q1.18-1.03 2.63-2.13l-.15-.15.04.04q.64 2.24 3.5 2.09l-.07-.07-.03-.03q.86.02 1.88-.21l.04.04-.05-.06q.93-.5.86-1.46l.07.08-.02-.03q-.09-1.11-1.88-1.8l-.09-.09-3.7-1.41-.07-.07q-2.3-1.31-2.64-4.85l.08.07h-.01q-.29-2.23 1.88-2.8l-.03-.03.08.07q.87-.31 3.84-.31l.06.07.06.06q4.85-.03 5.76 2.48l-.07-.07.01.02q-.56.61-1.29 1.07l-.16-.16-1.37.98.01.01q-.35-1.75-3.58-1.98l-.01-.01-.17-.17q-.56.05-1.59.47l.17.17-.06-.06q-.58.33-.58 1.43l-.05-.04-.05-.05q.51 1.23 2.34 1.91l-.07-.07-.03-.03q1.05.37 3.71 1.47l.08.08-.06-.06q1.76.77 1.95 3.32l-.02-.02.17.17q-.02.55-.09 1.54l.03.04.06.05q-.16.76-.73 1.41l.04.04.04.04q-1.58 1.12-4.62 1.12zm4.77 2.6l.02.01.04.04q.97.1 2.34-.2l.01.01-.14-.15q1.06-.68.87-1.9l.13.13-.15-.15q.07-.42-.23-2.02l-.05-.05q-.59-2.99-2.38-4.21l.01.01.04.04q-.44-1.31-1.7-2.04l-.02-.02-.02-.02q-1.36-.53-3.84-1.48l.09.09.06.06q.15-.46.41-.58l-.18-.18.19.19q.59-.47 1.24-.51l-.13-.13.09.09q.76-.07 1.53.19h-.01l.01.08h.12l.25.07-.09-.05-.03-.03q1.19.58 1.38 1.83l-.01-.01-.08-.08q1.27-.82 3.17-2.5l.04.04-.05-.05q-.13-.59-1.12-1.77l-.03-.02-.1-.11q-1.09-2.65-6.2-2.77l.1.1-.02-.02q-3.17-.05-5.15.52l.01.01-.08-.08q-1.45.53-1.22 2.62l.12.12.06.06q-.05 1.1.87 3.19l.04.05.09.09q.56 1.13 1.59 1.85l-.14-.13-.04-.05q.82 1.62 2.11 2.31v-.01h-.01q.84.15 1.79.53l.02.02 1.92.78.05.05q-.35 1.1-2.29.98l.05.05.02.02q-.46.04-1.68-.27l-.01-.02-.13-.27.02.24-.09-.09q-.9-.39-1.54-1.88l.11.11-.14-.13q-2.12 1.57-3.22 2.71l-.04-.03.08.07q.27.88 1.29 1.68v-.01l-.19.12.1.1q1.44 2.12 5.66 2.5l-.02-.02-.01-.02q1.25.11 4.48.34z"/><path d="M3 23c77-7 68 14 137 9" stroke="#3fdeb6" fill="none"/><path fill="#6adcdc" d="M103.62 41.35l-.06-.06.13.13q-3.04.01-4.29-.52l.06.06-.02-.02q-1.92-.78-1.84-3.25l-.04-.04.07.07q.22-3.32.22-2.75l-.04-.04-.11-.11q.11-5.22-2.74-10.05l.03.03-.16-.16q2 .98 3.98 1.36l.08.07-.08-.08q1.74 4.64 1.63 9.13l.08.08-.1-.09q-.13 1.5.71 2.72l-.01-.01.12.12q.81 1.23 2.33 1.04l.08.08.24-.25.15.15q1.34-.08 2.16-.84l-.08-.08-.06-.06q.87-.7.87-1.66l-.05-.05-.01-.01q.08-.15.04-.34l.01.01-.05-.05q-.12-5.29 1.02-9.63l.14.13-.13-.13q1.19.09 2.18-.14l-.15-.15 2.18-.33-.18-.18q-2.43 5.15-2.12 10.7l.02.03-.07-.07q.14 3.03-1.57 4.18l.05.04.03.03q-1.23.95-4.54 1.1zm2.44 2.52l-.18-.18.17.17q3.29-.03 5.11-.79l.05.04v.01q.86-.82.86-2.23v.01l.02.01q.06-.85-.2-2.41l.01.01-.03-.03q-.47-3.13-.09-6.14l.14.14-.04-.04q.24-3.3 1.65-6.04l.11.11v.01q-.72.22-2.06.64l.13.13-.13-.14q.19-.64.5-1.21l.04.04.6-1.11-.03-.03q-1.99.6-5.15 1.09l.04.04-.04-.04q-1.18 4.84-1.03 9.94l.09.09-.04-.04q.03 2.04-2.64 2.53l.14.14-.35.11-.27-.11-.85-.06-.12-.12q.04-.76.07-1.26l-.08-.08-.05-.05q.29-4.43-.4-8.85l-.05-.05-.93-.02q-.59-.1-1.13-.21l-.03-.04.04.05q-.4-1.43-.66-2.19l-.06-.06-.06-.05q-2.68-.33-4.93-1.62l.06.06-.03-.04q2.07 3.45 2.8 6.84L97 30.8l.12.13q.42 2.13.27 5.64l.03.03-.06-.07q.13.25.05 1.35l-.01-.01-.11-.11q-.09 2.43 1.28 3.38l-.05-.06.02.03q.34 2.2 7.35 2.58z"/><path fill="#7878e2" d="M74.86 41l.18.18-.02-.02q3.03-4.39 9.73-12.31l-.03-.03.08.08q-5.84.29-9.61-1.08l.02.02-.07-.07q-.59-1.35-1.35-2.76l-.09-.09.04.04q4.14 1.56 8.6 1.6l-.11-.12.01.02q4.52.1 8.7-.97l-.11-.11-.02-.02q-.34.72-.61 1.25l-.06-.06.14.15q-2.53 2.22-5.35 5.84l-.05-.05-4.94 6.17.05.06q2.16-.29 4.4-.21l.12.11-.09-.08q2.31.17 4.56.55h-.01.01q.01.47.73 2.49l.13.13h.01q-3.78-.88-7.77-.76l-.02-.02-.02-.01q-4 .06-7.66 1.24l-.04-.04.03.03q.08-.14.54-1.09zm-.96 1.86l-.04-.03-.04-.05q.89-.21 2.49-.63l-.03-.03q-.24.22-.66.64h.01v.01q-.3.5-.9 1.64l-.04-.04.11.12q4.7-1.35 9.69-1.2l-.07-.08.07.07q4.86.07 9.43 1.94l.09.09.03.03q-1.51-1.93-2.42-3.98l-.03-.03-.04-.04q-.71-.26-1.78-.49l.08.08q-.29-.83-.67-2.27l-.05-.05.15.15q-1.66-.44-5.23-.55l.07.08-.05-.06q2.46-3.24 7.49-9.6l-.07-.07.08.08q.17-.82.85-2.16l.01.02-2.23.81-.02-.02q-.03-.18.12-.3l-.01-.01.29-.09.01.01q.53-.99 1.1-1.94l-.12-.13.05.05q-4.65 1.37-9.37 1.29l-.1-.1.1.1q-4.77-.04-9.26-1.87l-.08-.08.07.07q1.05 1.74 1.85 3.79l.1.1.02.02q.81.28 1.88.54v.01l-.03-.03q.22.72.53 2.16l.06.07-.15-.16q1.78.45 5.09.6l-.11-.1.06.05q-2.43 3.29-7.6 9.72l-.05-.05q-.14.7-.71 1.92z"/><path fill="#e44848" d="M43.91 41.32l-.12-.12-2.95-.1.09.09q-2.57-.29-3.37-.4l.04.05.02.01q-1.89-.41-3.07-1.28l.08.08.07.07q-1.35-1.46-1.58-4.81l-.02-.02.1.1q-.06-.52-.13-1.74l-.12-.12.14.15q-.04-.46-.12-1.57l-.03-.02-.02-.03q0-.8.04-1.52l-.06-.06-.07-.06q.28-1.86 1.31-2.62l.01.01.09.09q1.85-1.24 6.68-1.47l.09.09-.12-.12q2.11-.02 2.91-.02l-.05-.05-.03-.03q1.45-.03 2.82.27l-.01-.01.04.04q-.52 1.31-1.05 3.14l-.11-.11.17.17q-.52.05-1.02.01l-.16-.16.18.18q-.21-.14-.75-.26l.11.11-.96-.24-.15-.15q-.92-.12-1.53-.08l-.18-.18.04.04q-4.58.22-5.19 3.03l-.03-.03.05.05q-.45.96-.37 1.91l.13.14-.14-.14q.26 2.7 1.5 3.78l.05.05-.12-.12q1.34 1.19 3.93 1.23l-.01-.01-.06-.06q1.48.04 2.21-.27l-.07-.06 1.14-.38-.08-.08q.52-.25 1.09-.33l.09.09-.02-.02q.22 1.78.6 3.07l.04.05.05.05q-.41.2-2.2.54zM47 44.1l.09.09.02.02q.4.06 1.23.13l.03.03.02.02q.52-.09.86-.66l.02.02.1.09Q48.1 41.7 47.6 39.6l.04.04-.13-.13q-.18.13-.64.13l-.02-.02-.1-.11q-.47-.05-.85.14l.06.06-.06-.06q-.21-1.12-.37-2.53l-.02-.02-.08-.09q-.51.02-1.73.6l.02.02q-1.2.58-1.7.58L42 38.2l-.12-.12q-.47.01-1.08-.02l.12.11-.04-.03q-.83.04-2.81-.53l-.07-.07-.05-.05q-.34-.72-.3-1.86l.08.08-.15-.15q.39-4.03 5.34-4.56l-.02-.02-.02-.02q.66-.03 2.03.32l-.05-.05-.05-.05q1.47.44 2.19.4l-.07-.07.07.07q.47-2.19 1.16-4.02l-.13-.13.02.02q-.39-.12-.77-.2l-.02-.02-.61.08-.08-.09q.26-.41.64-1.29l-.05-.05.03.03q-1.63-.46-3.19-.46l.08.09-.09-.09q-2.37.03-6.75.41h.01l-.04-.04q-1.84.26-3.4 1.25l-.01-.01.01.01q-1.26.91-1.26 2.81l.03.03.01.01q.02.44.14 1.66l-.08-.08-.07-.06q.1 1.04.06 1.65l-.05-.04.2.19q-.02 1.85.71 5.58l-.1-.1.01.02q.45.9.94 1.4l-.04-.04.17.17.15.11-.02-.02q1.02 2.13 4.95 2.73h-.01l-.04-.04q3.18.52 5.85.78l-.07-.06.07.07q.88.15 1.8.42z"/><path d="M9 19c49 8 55-15 130 29" stroke="#e6b788" fill="none"/><path fill="#de3f3f" d="M62.92 32.12l-9.21-9.96-.05-.06q.96 3.82.96 7.55l-.16-.16.05.05q-.02 5.95-2.08 11.51l.07.07-.06-.06q-.96.38-3.2 1.14l-.15-.15.07.07q2.87-5.73 2.87-12.43l.03.02-.17-.16q.1-8.55-4.39-15.97l-.1-.1.12.12q.34.07 1.02.49l.11.11-.09-.09q12.19 11.31 20.03 20.56l-.08-.08.14.14q-.42-2.55-.42-4.98l.1.1v-.01q-.16-7.39 2.35-13.59l.12.11.05.05q2.21-.64 3.81-1.33l.03.04h.01q-3.34 6.15-3.64 13.3l-.05-.05.08.08q-.28 7.37 2.69 13.54l-.15-.15.15.15q-.67-.17-1.08-.36l.12.13-.17-.17q-4.38-3.78-9.6-9.33l-.14-.14zM76.3 45.09l-.01-.01.03.02q.39.09.81.28l.08.08.87.37h-.01q-5.24-7.03-5.24-16.39l.08.07.09.1q-.12-7.36 3.2-13.6l.04.04-.08-.07q-.66.21-2.06.82l.01.02.14.14q.38-.84 1.22-2.4l-.07-.06-.09-.1q-2.43.93-4.86 1.5l.04.04-.08-.08q-2.57 6.52-2.57 13.95l.03.03.04.04q.03 1.9.22 3.88l.01.01-.15-.16q-4.55-5.57-9.31-10.18l-.09-.09-10.11-9.73-.01-.01q-.47-.21-1.69-.78l.05.05-.14-.14Q51.7 20.6 51.7 29.7l-.03-.03.07.07q-.07 7.05-3.15 13.07l-.1-.1.04.04q.41-.01 2.05-.62l-.09-.09.09.09q-.32.78-1.16 2.26l-.11-.1.1.1q1.21-.66 4.68-1.45l.17.16h-.01q2.31-6.15 2.31-13.34l-.17-.17.06.06q.04-2.06-.19-4.19l-.05-.05.13.13q11.38 12.72 19.98 19.57z"/><path fill="#5c7ddf" d="M125.6 40.26l-.09-.09.08.08q-1.93-.14-3.61.43l-.03-.03-.06-.06q.68-3.47.8-6.59l-.15-.14.09.09q.12-3.05-.11-6.7l.04.04.06.05q-1.51-.47-2.27-.85l.04.04-.43-3.05-.01-.02q.85.74 2.45 1.31l-.17-.17.14.14q-.3-2.21-.72-4.95l.06.06.03.03q2.26.66 3.9.51l-.1-.09.04 4.76-.15-.16q1.52.04 2.85-.46l.01.01-.05-.05q-.12.84-.34 2.59l.14.15-.03-.04q-1.63.24-2.66.24l.1.09h-.01q-.07 2.1-.07 6.37l.03.02q.04 4.19.11 6.36zm3.06-16.43l-.09-.09.14.15-.89.32-.14-.14.49-2.66-.02-.03q-.85.26-2.25.49l-.04-.04-.01-.01q.16-.52.31-1.89l-.14-.15.17.17q-.71-.02-1.28-.02l-.05-.05.15.15q-2.18-.05-3.82-.77l-.05-.05q.5 2.48.77 4.95l.01.01-.06-.06q-.82-.29-2.35-1.31l-.01-.02h-.01q.33 1.27.56 3.98l.1.1-.01-.01q.47.24 1.65.66l-.03-.03.03.03q-.09.52-.05 1.92l.02.03.46.11.01-.06.03.03q.06 1.24.06 2.42l.03.03-.05-.05q-.03 4.92-.83 9.26l.04.04.11.11q.09-.21 2.04-.75l.07.07-.12-.11q-.01.64-.12 2.01l.13.13q.73-.14 1.53-.14l-.01-.02.01.01q1.65-.06 3.28.51l.04.04.04.03q-1.39-5.76-1.2-13.68l.06.06 2.35-.43-.03-.03q.21-.78.28-1.81l-.09-.09.23-1.98.04.04q-.54.3-1.72.75l.03.03-.14-.14q.31-1.32.24-1.66l.01.01.1.1q-.01-.2.07-.39z"/></svg>

<svg xmlns='http://www.w3.org/2000/svg' width='150' height='50' viewBox='0,0,150,50'>
    <path fill='#59c7ec'
        d='M18.30 41.08L18.35 41.13L16.65 41.14L16.59 41.09Q13.35 41.23 12.40 39.10L12.38 39.08L12.38 39.08Q13.56 38.05 15.01 36.95L14.86 36.80L14.90 36.84Q15.54 39.08 18.40 38.93L18.33 38.86L18.30 38.83Q19.16 38.85 20.18 38.62L20.22 38.66L20.17 38.60Q21.10 38.10 21.03 37.14L21.10 37.22L21.08 37.19Q20.99 36.08 19.20 35.39L19.11 35.30L15.41 33.89L15.34 33.82Q13.04 32.51 12.70 28.97L12.78 29.04L12.77 29.04Q12.48 26.81 14.65 26.24L14.62 26.21L14.70 26.28Q15.57 25.97 18.54 25.97L18.60 26.04L18.66 26.10Q23.51 26.07 24.42 28.58L24.35 28.51L24.36 28.53Q23.80 29.14 23.07 29.60L22.91 29.44L21.54 30.42L21.55 30.43Q21.20 28.68 17.97 28.45L17.96 28.44L17.79 28.27Q17.23 28.32 16.20 28.74L16.37 28.91L16.31 28.85Q15.73 29.18 15.73 30.28L15.68 30.24L15.63 30.19Q16.14 31.42 17.97 32.10L17.90 32.03L17.87 32.00Q18.92 32.37 21.58 33.47L21.66 33.55L21.60 33.49Q23.36 34.26 23.55 36.81L23.53 36.79L23.70 36.96Q23.68 37.51 23.61 38.50L23.64 38.54L23.70 38.59Q23.54 39.35 22.97 40.00L23.01 40.04L23.05 40.08Q21.47 41.20 18.43 41.20ZM23.07 43.68L23.09 43.69L23.13 43.73Q24.10 43.83 25.47 43.53L25.48 43.54L25.34 43.39Q26.40 42.71 26.21 41.49L26.34 41.62L26.19 41.47Q26.26 41.05 25.96 39.45L25.91 39.40L25.91 39.40Q25.32 36.41 23.53 35.19L23.54 35.20L23.58 35.24Q23.14 33.93 21.88 33.20L21.86 33.18L21.84 33.16Q20.48 32.63 18.00 31.68L18.09 31.77L18.15 31.83Q18.30 31.37 18.56 31.25L18.38 31.07L18.57 31.26Q19.16 30.79 19.81 30.75L19.68 30.62L19.77 30.71Q20.53 30.64 21.30 30.90L21.29 30.90L21.30 30.98L21.42 30.98L21.67 31.05L21.58 31.00L21.55 30.97Q22.74 31.55 22.93 32.80L22.92 32.79L22.84 32.71Q24.11 31.89 26.01 30.21L26.05 30.25L26.00 30.20Q25.87 29.61 24.88 28.43L24.85 28.41L24.75 28.30Q23.66 25.65 18.55 25.53L18.65 25.63L18.63 25.61Q15.46 25.56 13.48 26.13L13.49 26.14L13.41 26.06Q11.96 26.59 12.19 28.68L12.31 28.80L12.37 28.86Q12.32 29.96 13.24 32.05L13.28 32.10L13.37 32.19Q13.93 33.32 14.96 34.04L14.82 33.91L14.78 33.86Q15.60 35.48 16.89 36.17L16.89 36.16L16.88 36.16Q17.72 36.31 18.67 36.69L18.69 36.71L20.61 37.49L20.66 37.54Q20.31 38.64 18.37 38.52L18.42 38.57L18.44 38.59Q17.98 38.63 16.76 38.32L16.75 38.30L16.62 38.03L16.64 38.27L16.55 38.18Q15.65 37.79 15.01 36.30L15.12 36.41L14.98 36.28Q12.86 37.85 11.76 38.99L11.72 38.96L11.80 39.03Q12.07 39.91 13.09 40.71L13.09 40.70L12.90 40.82L13.00 40.92Q14.44 43.04 18.66 43.42L18.64 43.40L18.63 43.38Q19.88 43.49 23.11 43.72Z' />
    <path d='M3 23 C80 16,71 37,140 32' stroke='#3fdeb6' fill='none' />
    <path fill='#6adcdc'
        d='M103.62 41.35L103.56 41.29L103.69 41.42Q100.65 41.43 99.40 40.90L99.46 40.96L99.44 40.94Q97.52 40.16 97.60 37.69L97.56 37.65L97.63 37.72Q97.85 34.40 97.85 34.97L97.81 34.93L97.70 34.82Q97.81 29.60 94.96 24.77L94.99 24.80L94.83 24.64Q96.83 25.62 98.81 26.00L98.89 26.07L98.81 25.99Q100.55 30.63 100.44 35.12L100.52 35.20L100.42 35.11Q100.29 36.61 101.13 37.83L101.12 37.82L101.24 37.94Q102.05 39.17 103.57 38.98L103.65 39.06L103.89 38.81L104.04 38.96Q105.38 38.88 106.20 38.12L106.12 38.04L106.06 37.98Q106.93 37.28 106.93 36.32L106.88 36.27L106.87 36.26Q106.95 36.11 106.91 35.92L106.92 35.93L106.87 35.88Q106.75 30.59 107.89 26.25L108.03 26.38L107.90 26.25Q109.09 26.34 110.08 26.11L109.93 25.96L112.11 25.63L111.93 25.45Q109.50 30.60 109.81 36.15L109.83 36.18L109.76 36.11Q109.90 39.14 108.19 40.29L108.24 40.33L108.27 40.36Q107.04 41.31 103.73 41.46ZM106.06 43.87L105.88 43.69L106.05 43.86Q109.34 43.83 111.16 43.07L111.21 43.11L111.21 43.12Q112.07 42.30 112.07 40.89L112.07 40.90L112.09 40.91Q112.15 40.06 111.89 38.50L111.90 38.51L111.87 38.48Q111.40 35.35 111.78 32.34L111.92 32.48L111.88 32.44Q112.12 29.14 113.53 26.40L113.64 26.51L113.64 26.52Q112.92 26.74 111.58 27.16L111.71 27.29L111.58 27.15Q111.77 26.51 112.08 25.94L112.12 25.98L112.72 24.87L112.69 24.84Q110.70 25.44 107.54 25.93L107.58 25.97L107.54 25.93Q106.36 30.77 106.51 35.87L106.60 35.96L106.56 35.92Q106.59 37.96 103.92 38.45L104.06 38.59L103.71 38.70L103.44 38.59L102.59 38.53L102.47 38.41Q102.51 37.65 102.54 37.15L102.46 37.07L102.41 37.02Q102.70 32.59 102.01 28.17L101.96 28.12L101.03 28.10L101.03 28.10Q100.44 28.00 99.90 27.89L99.87 27.85L99.91 27.90Q99.51 26.47 99.25 25.71L99.19 25.65L99.13 25.60Q96.45 25.27 94.20 23.98L94.26 24.04L94.23 24.00Q96.30 27.45 97.03 30.84L97.00 30.80L97.12 30.93Q97.54 33.06 97.39 36.57L97.42 36.60L97.36 36.53Q97.49 36.78 97.41 37.88L97.40 37.87L97.29 37.76Q97.20 40.19 98.57 41.14L98.52 41.08L98.54 41.11Q98.88 43.31 105.89 43.69Z' />
    <path fill='#7878e2'
        d='M74.86 41.00L75.04 41.18L75.02 41.16Q78.05 36.77 84.75 28.85L84.72 28.82L84.80 28.90Q78.96 29.19 75.19 27.82L75.21 27.84L75.14 27.77Q74.55 26.42 73.79 25.01L73.70 24.92L73.74 24.96Q77.88 26.52 82.34 26.56L82.23 26.44L82.24 26.46Q86.76 26.56 90.94 25.49L90.83 25.38L90.81 25.36Q90.47 26.08 90.20 26.61L90.14 26.55L90.28 26.70Q87.75 28.92 84.93 32.54L84.88 32.49L79.94 38.66L79.99 38.72Q82.15 38.43 84.39 38.51L84.51 38.62L84.42 38.54Q86.73 38.71 88.98 39.09L88.97 39.09L88.98 39.09Q88.99 39.56 89.71 41.58L89.84 41.71L89.85 41.71Q86.07 40.83 82.08 40.95L82.06 40.93L82.04 40.92Q78.04 40.98 74.38 42.16L74.34 42.12L74.37 42.15Q74.45 42.01 74.91 41.06ZM73.90 42.86L73.86 42.83L73.82 42.78Q74.71 42.57 76.31 42.15L76.31 42.15L76.28 42.12Q76.04 42.34 75.62 42.76L75.63 42.76L75.63 42.77Q75.33 43.27 74.73 44.41L74.69 44.37L74.80 44.49Q79.50 43.14 84.49 43.29L84.42 43.21L84.49 43.28Q89.35 43.35 93.92 45.22L94.01 45.31L94.04 45.34Q92.53 43.41 91.62 41.36L91.59 41.33L91.55 41.29Q90.84 41.03 89.77 40.80L89.85 40.88L89.85 40.88Q89.56 40.05 89.18 38.61L89.13 38.56L89.28 38.71Q87.62 38.27 84.05 38.16L84.12 38.24L84.07 38.18Q86.53 34.94 91.56 28.58L91.49 28.51L91.57 28.59Q91.74 27.77 92.42 26.43L92.43 26.45L90.20 27.26L90.18 27.24Q90.15 27.06 90.30 26.94L90.29 26.93L90.58 26.84L90.59 26.85Q91.12 25.86 91.69 24.91L91.57 24.78L91.62 24.83Q86.97 26.20 82.25 26.12L82.15 26.02L82.25 26.12Q77.48 26.08 72.99 24.25L72.91 24.17L72.98 24.24Q74.03 25.98 74.83 28.03L74.93 28.13L74.95 28.15Q75.76 28.43 76.83 28.69L76.83 28.70L76.80 28.67Q77.02 29.39 77.33 30.83L77.39 30.90L77.24 30.74Q79.02 31.19 82.33 31.34L82.22 31.24L82.28 31.29Q79.85 34.58 74.68 41.01L74.63 40.96L74.63 40.96Q74.49 41.66 73.92 42.88Z' />
    <path fill='#e44848'
        d='M43.91 41.32L43.79 41.20L40.84 41.10L40.93 41.19Q38.36 40.90 37.56 40.79L37.60 40.84L37.62 40.85Q35.73 40.44 34.55 39.57L34.63 39.65L34.70 39.72Q33.35 38.26 33.12 34.91L33.10 34.89L33.20 34.99Q33.14 34.47 33.07 33.25L32.95 33.13L33.09 33.28Q33.05 32.82 32.97 31.71L32.94 31.69L32.92 31.66Q32.92 30.86 32.96 30.14L32.90 30.08L32.83 30.02Q33.11 28.16 34.14 27.40L34.15 27.41L34.24 27.50Q36.09 26.26 40.92 26.03L41.01 26.12L40.89 26.00Q43.00 25.98 43.80 25.98L43.75 25.93L43.72 25.90Q45.17 25.87 46.54 26.17L46.53 26.16L46.57 26.20Q46.05 27.51 45.52 29.34L45.41 29.23L45.58 29.40Q45.06 29.45 44.56 29.41L44.40 29.25L44.58 29.43Q44.37 29.29 43.83 29.17L43.94 29.28L42.98 29.04L42.83 28.89Q41.91 28.77 41.30 28.81L41.12 28.63L41.16 28.67Q36.58 28.89 35.97 31.70L35.94 31.67L35.99 31.72Q35.54 32.68 35.62 33.63L35.75 33.77L35.61 33.63Q35.87 36.33 37.11 37.41L37.16 37.46L37.04 37.34Q38.38 38.53 40.97 38.57L40.96 38.56L40.90 38.50Q42.38 38.54 43.11 38.23L43.04 38.17L44.18 37.79L44.10 37.71Q44.62 37.46 45.19 37.38L45.28 37.47L45.26 37.45Q45.48 39.23 45.86 40.52L45.90 40.57L45.95 40.62Q45.54 40.82 43.75 41.16ZM47.00 44.10L47.09 44.19L47.11 44.21Q47.51 44.27 48.34 44.34L48.37 44.37L48.39 44.39Q48.91 44.30 49.25 43.73L49.27 43.75L49.37 43.84Q48.10 41.70 47.60 39.60L47.64 39.64L47.51 39.51Q47.33 39.64 46.87 39.64L46.85 39.62L46.75 39.51Q46.28 39.46 45.90 39.65L45.96 39.71L45.90 39.65Q45.69 38.53 45.53 37.12L45.51 37.10L45.43 37.01Q44.92 37.03 43.70 37.61L43.72 37.63L43.72 37.63Q42.52 38.21 42.02 38.21L42.00 38.20L41.88 38.08Q41.41 38.09 40.80 38.06L40.92 38.17L40.88 38.14Q40.05 38.18 38.07 37.61L38.00 37.54L37.95 37.49Q37.61 36.77 37.65 35.63L37.73 35.71L37.58 35.56Q37.97 31.53 42.92 31.00L42.90 30.98L42.88 30.96Q43.54 30.93 44.91 31.28L44.86 31.23L44.81 31.18Q46.28 31.62 47.00 31.58L46.93 31.51L47.00 31.58Q47.47 29.39 48.16 27.56L48.03 27.43L48.05 27.45Q47.66 27.33 47.28 27.25L47.26 27.23L46.65 27.31L46.57 27.22Q46.83 26.81 47.21 25.93L47.16 25.88L47.19 25.91Q45.56 25.45 44.00 25.45L44.08 25.54L43.99 25.45Q41.62 25.48 37.24 25.86L37.25 25.86L37.21 25.82Q35.37 26.08 33.81 27.07L33.80 27.06L33.81 27.07Q32.55 27.98 32.55 29.88L32.58 29.91L32.59 29.92Q32.61 30.36 32.73 31.58L32.65 31.50L32.58 31.44Q32.68 32.48 32.64 33.09L32.59 33.05L32.79 33.24Q32.77 35.09 33.50 38.82L33.40 38.72L33.41 38.74Q33.86 39.64 34.35 40.14L34.31 40.10L34.48 40.27L34.63 40.38L34.61 40.36Q35.63 42.49 39.56 43.09L39.55 43.09L39.51 43.05Q42.69 43.57 45.36 43.83L45.29 43.77L45.36 43.84Q46.24 43.99 47.16 44.26Z' />
    <path d='M9 19 C58 27,64 4,139 48' stroke='#e6b788' fill='none' />
    <path fill='#de3f3f'
        d='M62.92 32.12L53.71 22.16L53.66 22.10Q54.62 25.92 54.62 29.65L54.46 29.49L54.51 29.54Q54.49 35.49 52.43 41.05L52.50 41.12L52.44 41.06Q51.48 41.44 49.24 42.20L49.09 42.05L49.16 42.12Q52.03 36.39 52.03 29.69L52.06 29.71L51.89 29.55Q51.99 21.00 47.50 13.58L47.40 13.48L47.52 13.60Q47.86 13.67 48.54 14.09L48.65 14.20L48.56 14.11Q60.75 25.42 68.59 34.67L68.51 34.59L68.65 34.73Q68.23 32.18 68.23 29.75L68.33 29.85L68.33 29.84Q68.17 22.45 70.68 16.25L70.80 16.36L70.85 16.41Q73.06 15.77 74.66 15.08L74.69 15.12L74.70 15.12Q71.36 21.27 71.06 28.42L71.01 28.37L71.09 28.45Q70.81 35.82 73.78 41.99L73.63 41.84L73.78 41.99Q73.11 41.82 72.70 41.63L72.82 41.76L72.65 41.59Q68.27 37.81 63.05 32.26L62.91 32.12ZM76.30 45.09L76.29 45.08L76.32 45.10Q76.71 45.19 77.13 45.38L77.21 45.46L78.08 45.83L78.07 45.83Q72.83 38.80 72.83 29.44L72.91 29.51L73.00 29.61Q72.88 22.25 76.20 16.01L76.24 16.05L76.16 15.98Q75.50 16.19 74.10 16.80L74.11 16.82L74.25 16.96Q74.63 16.12 75.47 14.56L75.40 14.50L75.31 14.40Q72.88 15.33 70.45 15.90L70.49 15.94L70.41 15.86Q67.84 22.38 67.84 29.81L67.87 29.84L67.91 29.88Q67.94 31.78 68.13 33.76L68.14 33.77L67.99 33.61Q63.44 28.04 58.68 23.43L58.59 23.34L48.48 13.61L48.47 13.60Q48.00 13.39 46.78 12.82L46.83 12.87L46.69 12.73Q51.70 20.60 51.70 29.70L51.67 29.67L51.74 29.74Q51.67 36.79 48.59 42.81L48.49 42.71L48.53 42.75Q48.94 42.74 50.58 42.13L50.49 42.04L50.58 42.13Q50.26 42.91 49.42 44.39L49.31 44.29L49.41 44.39Q50.62 43.73 54.09 42.94L54.26 43.10L54.25 43.10Q56.56 36.95 56.56 29.76L56.39 29.59L56.45 29.65Q56.49 27.59 56.26 25.46L56.21 25.41L56.34 25.54Q67.72 38.26 76.32 45.11Z' />
    <path fill='#5c7ddf'
        d='M125.60 40.26L125.51 40.17L125.59 40.25Q123.66 40.11 121.98 40.68L121.95 40.65L121.89 40.59Q122.57 37.12 122.69 34.00L122.54 33.86L122.63 33.95Q122.75 30.90 122.52 27.25L122.56 27.29L122.62 27.34Q121.11 26.87 120.35 26.49L120.39 26.53L119.96 23.48L119.95 23.46Q120.80 24.20 122.40 24.77L122.23 24.60L122.37 24.74Q122.07 22.53 121.65 19.79L121.71 19.85L121.74 19.88Q124.00 20.54 125.64 20.39L125.54 20.30L125.58 25.06L125.43 24.90Q126.95 24.94 128.28 24.44L128.29 24.45L128.24 24.40Q128.12 25.24 127.90 26.99L128.04 27.14L128.01 27.10Q126.38 27.34 125.35 27.34L125.45 27.43L125.44 27.43Q125.37 29.53 125.37 33.80L125.40 33.82L125.40 33.82Q125.44 38.01 125.51 40.18ZM128.66 23.83L128.57 23.74L128.71 23.89Q128.43 23.99 127.82 24.21L127.68 24.07L128.17 21.41L128.15 21.38Q127.30 21.64 125.90 21.87L125.86 21.83L125.85 21.82Q126.01 21.30 126.16 19.93L126.02 19.78L126.19 19.95Q125.48 19.93 124.91 19.93L124.86 19.88L125.01 20.03Q122.83 19.98 121.19 19.26L121.19 19.26L121.14 19.21Q121.64 21.69 121.91 24.16L121.92 24.17L121.86 24.11Q121.04 23.82 119.51 22.80L119.50 22.78L119.49 22.78Q119.82 24.05 120.05 26.76L120.15 26.86L120.14 26.85Q120.61 27.09 121.79 27.51L121.76 27.48L121.79 27.51Q121.70 28.03 121.74 29.43L121.76 29.46L122.22 29.57L122.23 29.51L122.26 29.54Q122.32 30.78 122.32 31.96L122.35 31.99L122.30 31.94Q122.27 36.86 121.47 41.20L121.51 41.24L121.62 41.35Q121.71 41.14 123.66 40.60L123.73 40.67L123.61 40.56Q123.60 41.20 123.49 42.57L123.62 42.70L123.62 42.70Q124.35 42.56 125.15 42.56L125.14 42.54L125.15 42.55Q126.80 42.49 128.43 43.06L128.47 43.10L128.51 43.13Q127.12 37.37 127.31 29.45L127.37 29.51L129.72 29.08L129.69 29.05Q129.90 28.27 129.97 27.24L129.88 27.15L130.11 25.17L130.15 25.21Q129.61 25.51 128.43 25.96L128.46 25.99L128.32 25.85Q128.63 24.53 128.56 24.19L128.57 24.20L128.67 24.30Q128.66 24.10 128.74 23.91Z' />
    </svg>
